X:19094
T:Xiraldilla (CT 466)
R:Xiraldilla
C:Tradicional
S:Música Tradicional Asturiana, (C) Tello & Tito. Asturies, 2001.
S:http://pagina.de/MusTradAst <telloytito@asturies.org>
N:Xiraldilla, dictada por Faustino García Martínez, de cincuenta años, de Llanuces, ayuntamiento de Quirós.
O:Llanuces (Quirós)
A:Asturies
Z:Cancioneru de Torner 466
M:2/4
L:1/8
Q:1/4=160
W:Ya murió la mio xatina,
W:dinguindina,
W:de la mio vaca Galana,
W:dinguindaina,
W:unos dicen que de gorda,
W:dinguindina,
W:y otros dice que de flaca,
W:dinguindaina.
K:C
cc|ce dc|BA BB|A2 G2-|G2 AA|Ac BA|GF GG|G2 G2-|Gz :||


